src/lib/packages/icons/src/assets/filled/phone-times.svg

<svg width="24" height="24" viewBox="0 0 24 24" fill="none" xmlns="http://www.w3.org/2000/svg">
<path d="M17.6249 14.174L20.268 15.75C20.814 16.076 21.0959 16.71 20.9709 17.334C20.4599 19.893 17.89 21.533 15.373 20.842C9.43395 19.212 4.79484 14.587 3.15884 8.635C2.46684 6.117 4.10495 3.54498 6.66495 3.03298L6.68179 3.02999C7.30679 2.90499 7.94395 3.18799 8.26895 3.73699L9.83194 6.376C10.3879 7.314 10.1118 8.52398 9.20279 9.12798L7.5419 10.233C8.7139 13.04 10.9538 15.289 13.7528 16.459L14.8678 14.794C15.4768 13.887 16.6869 13.615 17.6249 14.174ZM19.0609 5.99999L20.5309 4.52999C20.8239 4.23699 20.8239 3.76198 20.5309 3.46898C20.2379 3.17598 19.7629 3.17598 19.4699 3.46898L17.9999 4.93898L16.5299 3.46898C16.2369 3.17598 15.7619 3.17598 15.4689 3.46898C15.1759 3.76198 15.1759 4.23699 15.4689 4.52999L16.9389 5.99999L15.4689 7.46999C15.1759 7.76299 15.1759 8.23799 15.4689 8.53099C15.6149 8.67699 15.8069 8.751 15.9989 8.751C16.1909 8.751 16.383 8.67799 16.529 8.53099L17.9989 7.06099L19.4689 8.53099C19.6149 8.67699 19.8069 8.751 19.9989 8.751C20.1909 8.751 20.383 8.67799 20.529 8.53099C20.822 8.23799 20.822 7.76299 20.529 7.46999L19.0609 5.99999Z" fill="currentColor"/>
</svg>

<svg xmlns="http://www.w3.org/2000/svg" width="24" height="24" fill="none"><path fill="currentColor" d="m17.625 14.174 2.643 1.576c.546.326.828.96.703 1.584-.511 2.559-3.081 4.199-5.598 3.508A17.442 17.442 0 0 1 3.159 8.635c-.692-2.518.946-5.09 3.506-5.602l.017-.003a1.502 1.502 0 0 1 1.587.707l1.563 2.639a2.05 2.05 0 0 1-.63 2.752l-1.66 1.105a11.602 11.602 0 0 0 6.21 6.226l1.116-1.665a2.053 2.053 0 0 1 2.757-.62ZM19.06 6l1.47-1.47a.75.75 0 1 0-1.061-1.061L18 4.939l-1.47-1.47a.75.75 0 1 0-1.061 1.061L16.939 6l-1.47 1.47a.75.75 0 0 0 1.06 1.061l1.47-1.47 1.47 1.47a.748.748 0 0 0 1.06 0 .75.75 0 0 0 0-1.061L19.061 6Z"/></svg>
